icon-svg/hue-spot-v2.svg

<svg xmlns="http://www.w3.org/2000/svg" fill="#44739e" viewBox="0 0 24 24"><path d="M5.984 6.662a.126.126 0 0 0 .051.128c.037.031.269 0 .333.081a.512.512 0 0 1 .076.343c.137 3.211 1.676 4.036 2.5 5.763a38.1 38.1 0 0 1 .42 3.923 2.63 2.63 0 0 0 1.057.7l.006.571a.308.308 0 0 0-.2.153l.01.692a.85.85 0 0 0 1.193.012v-.746a.189.189 0 0 0-.165-.12l-.007-.5h1.565v.511a.412.412 0 0 0-.208.162l.015.665a.83.83 0 0 0 1.193-.026c.01-.013-.013-.688-.013-.688a.193.193 0 0 0-.165-.118l-.006-.6c.473-.045.958-.7 1.02-.775a15.4 15.4 0 0 1 .3-3.7c.284-1.064 2.266-1.914 2.463-5.709 0-.048-.018-.351.119-.466.1-.082.21-.058.3-.151a.39.39 0 0 0 .047-.135 88.3 88.3 0 0 0-11.904.03M9 11.1a.143.143 0 1 1-.285 0v-.76H9Zm1.464 0a.143.143 0 1 1-.285 0v-.76h.285zm0-.971h-.285v-.075c0-.412-.194-.639-.548-.639a.648.648 0 0 0-.631.71h-.289V8.579a.143.143 0 1 1 .285 0v1.075l.037-.076a.715.715 0 0 1 .677-.384c.484 0 .75.309.75.869zm2.724 0h.182a.977.977 0 0 1 1.009-.936.883.883 0 0 1 .912 1v.016a.124.124 0 0 1-.139.127h-1.495v.006a.729.729 0 0 0 .809.714 1.11 1.11 0 0 0 .438-.075c.03-.01.061-.022.1-.032a.138.138 0 0 1 .116 0 .092.092 0 0 1 .041.066.118.118 0 0 1-.08.129 1.44 1.44 0 0 1-.639.125.986.986 0 0 1-1.073-.938h-.181a.106.106 0 1 1 0-.211zm-2.143-.766a.142.142 0 1 1 .284 0v.766h-.284zm1.46 0a.143.143 0 1 1 .285 0v.766h-.29Zm0 1.046v-.069h.285v.768a.143.143 0 1 1-.285 0v-.236.01a.705.705 0 0 1-.67.4c-.521 0-.785-.285-.785-.845v-.093h.284v.077c0 .43.191.639.584.639a.615.615 0 0 0 .582-.65Zm2.521-.287a.63.63 0 0 0-.643-.714.711.711 0 0 0-.726.713v.009h1.37zm2.907-4.307a105.3 105.3 0 0 0-11.914.021c-.06 0-.063.612 0 .609a95.5 95.5 0 0 1 11.913 0 1.245 1.245 0 0 0 .001-.63m-6.053-.424c1.679 0 3.377.031 5.052.1l.455.018-.359-.28c-1.269-.99-3.372-.978-4.909-.97h-.183c-2.472-.009-4.155.317-5.009.968l-.37.281.464-.018c1.612-.065 3.247-.098 4.859-.099m.056-.841h.185a9.63 9.63 0 0 1 4.288.626c-1.474-.051-2.963-.077-4.434-.077h-.095c-1.423 0-2.864.026-4.291.075a11.1 11.1 0 0 1 4.347-.624"/></svg>

<?xml version="1.0" encoding="UTF-8"?>
<svg width="33px" height="32px" viewBox="0 0 24 24" fill="#44739e" version="1.1" xmlns="http://www.w3.org/2000/svg" xmlns:xlink="http://www.w3.org/1999/xlink">
            <path d="M 5.984,6.662 A 0.126,0.126 0 0 0 6.035,6.79 c 0.037,0.031 0.269,0 0.333,0.081 a 0.512,0.512 0 0 1 0.076,0.343 c 0.137,3.211 1.676,4.036 2.5,5.763 a 38.108,38.108 0 0 1 0.42,3.923 2.628,2.628 0 0 0 1.057,0.7 l 0.006,0.571 a 0.308,0.308 0 0 0 -0.2,0.153 l 0.01,0.692 a 0.85,0.85 0 0 0 1.193,0.012 v -0.746 a 0.189,0.189 0 0 0 -0.165,-0.12 l -0.007,-0.5 h 1.565 v 0.511 a 0.412,0.412 0 0 0 -0.208,0.162 L 12.63,19 a 0.83,0.83 0 0 0 1.193,-0.026 c 0.01,-0.013 -0.013,-0.688 -0.013,-0.688 a 0.193,0.193 0 0 0 -0.165,-0.118 l -0.006,-0.6 c 0.473,-0.045 0.958,-0.7 1.02,-0.775 a 15.4,15.4 0 0 1 0.3,-3.7 c 0.284,-1.064 2.266,-1.914 2.463,-5.709 0,-0.048 -0.018,-0.351 0.119,-0.466 0.1,-0.082 0.21,-0.058 0.3,-0.151 A 0.391,0.391 0 0 0 17.888,6.632 88.261,88.261 0 0 0 5.984,6.662 Z M 9,11.1 a 0.143,0.143 0 1 1 -0.285,0 V 10.34 H 9 Z m 1.464,0 a 0.143,0.143 0 1 1 -0.285,0 v -0.76 h 0.285 z m 0,-0.971 H 10.179 V 10.054 C 10.179,9.642 9.985,9.415 9.631,9.415 A 0.648,0.648 0 0 0 9,10.125 v 0 H 8.711 V 8.579 a 0.143,0.143 0 1 1 0.285,0 V 9.654 L 9.033,9.578 A 0.715,0.715 0 0 1 9.71,9.194 c 0.484,0 0.75,0.309 0.75,0.869 z m 2.724,0 h 0.182 a 0.977,0.977 0 0 1 1.009,-0.936 0.883,0.883 0 0 1 0.912,1 v 0.016 a 0.124,0.124 0 0 1 -0.139,0.127 h -1.495 v 0.006 a 0.729,0.729 0 0 0 0.809,0.714 1.106,1.106 0 0 0 0.438,-0.075 c 0.03,-0.01 0.061,-0.022 0.1,-0.032 a 0.138,0.138 0 0 1 0.116,0 0.092,0.092 0 0 1 0.041,0.066 0.118,0.118 0 0 1 -0.08,0.129 1.439,1.439 0 0 1 -0.639,0.125 0.986,0.986 0 0 1 -1.073,-0.938 h -0.181 a 0.106,0.106 0 1 1 0,-0.211 z M 11.045,9.363 a 0.142,0.142 0 1 1 0.284,0 v 0.766 h -0.284 z m 1.46,0 a 0.143,0.143 0 1 1 0.285,0 v 0.766 H 12.5 Z m 0,1.046 V 10.34 h 0.285 v 0.768 a 0.143,0.143 0 1 1 -0.285,0 v -0.236 0.01 a 0.705,0.705 0 0 1 -0.67,0.4 c -0.521,0 -0.785,-0.285 -0.785,-0.845 v -0.093 h 0.284 v 0.077 c 0,0.43 0.191,0.639 0.584,0.639 A 0.615,0.615 0 0 0 12.5,10.41 Z m 2.521,-0.287 a 0.63,0.63 0 0 0 -0.643,-0.714 0.711,0.711 0 0 0 -0.726,0.713 v 0.009 h 1.37 z M 17.933,5.815 A 105.326,105.326 0 0 0 6.019,5.836 c -0.06,0 -0.063,0.612 0,0.609 a 95.466,95.466 0 0 1 11.913,0 1.245,1.245 0 0 0 0.001,-0.63 z M 11.88,5.391 c 1.679,0 3.377,0.031 5.052,0.1 l 0.455,0.018 -0.359,-0.28 C 15.759,4.239 13.656,4.251 12.119,4.259 H 11.936 C 9.464,4.25 7.781,4.576 6.927,5.227 L 6.557,5.508 7.021,5.49 C 8.633,5.425 10.268,5.392 11.88,5.391 Z M 11.936,4.55 h 0.185 a 9.631,9.631 0 0 1 4.288,0.626 C 14.935,5.125 13.446,5.099 11.975,5.099 H 11.88 c -1.423,0 -2.864,0.026 -4.291,0.075 A 11.1,11.1 0 0 1 11.936,4.55 Z"/>

</svg>
